src/img/svg/cart.svg

<svg width="38" height="40" viewBox="0 0 38 40" fill="none" xmlns="http://www.w3.org/2000/svg">
<path d="M10.3126 30.874C8.79845 30.874 7.57338 32.1156 7.57338 33.6331C7.57338 35.1507 8.79845 36.3923 10.3126 36.3923C11.8267 36.3923 13.0655 35.1507 13.0655 33.6331C13.0655 32.1156 11.8267 30.874 10.3126 30.874ZM2.05371 8.80078V11.5599H4.80666L9.76198 22.0309L7.90374 25.4109C7.6835 25.7971 7.55962 26.2524 7.55962 26.7353C7.55962 28.2528 8.79845 29.4944 10.3126 29.4944H26.8303V26.7353H10.8907C10.698 26.7353 10.5466 26.5835 10.5466 26.3904L10.5879 26.2248L11.8267 23.9761H22.0814C23.1138 23.9761 24.0223 23.4105 24.4903 22.5551L29.4181 13.6017C29.5282 13.4086 29.5832 13.174 29.5832 12.9395C29.5832 12.1807 28.9638 11.5599 28.2068 11.5599H7.84868L6.55479 8.80078H2.05371ZM24.0773 30.874C22.5632 30.874 21.3381 32.1156 21.3381 33.6331C21.3381 35.1507 22.5632 36.3923 24.0773 36.3923C25.5915 36.3923 26.8303 35.1507 26.8303 33.6331C26.8303 32.1156 25.5915 30.874 24.0773 30.874Z" fill="#333333"/>
<path d="M37.3461 9.49068C37.3461 14.1706 33.5611 17.9625 28.8944 17.9625C24.2277 17.9625 20.4426 14.1706 20.4426 9.49068C20.4426 4.81075 24.2277 1.01882 28.8944 1.01882C33.5611 1.01882 37.3461 4.81075 37.3461 9.49068Z" fill="#40B756" stroke="#3DB657" stroke-width="0.990764"/>
<path d="M31.8645 5.33969V6.14816L28.4999 13.6621H27.2396L30.5329 6.37405H26.7284V7.8602H25.587V5.33969H31.8645Z" fill="white"/>
</svg>

<svg width="38" height="40" fill="none" xmlns="http://www.w3.org/2000/svg"><path d="M10.313 30.874c-1.515 0-2.74 1.242-2.74 2.76 0 1.517 1.225 2.758 2.74 2.758a2.764 2.764 0 0 0 2.752-2.759 2.764 2.764 0 0 0-2.752-2.759zM2.053 8.801v2.759h2.754l4.955 10.47-1.858 3.38c-.22.387-.344.842-.344 1.325a2.764 2.764 0 0 0 2.753 2.76H26.83v-2.76H10.89a.341.341 0 0 1-.343-.345l.04-.165 1.24-2.249H22.08a2.743 2.743 0 0 0 2.41-1.42l4.927-8.954a1.35 1.35 0 0 0 .165-.662c0-.76-.62-1.38-1.376-1.38H7.849L6.555 8.8H2.054zm22.024 22.073c-1.514 0-2.739 1.242-2.739 2.76 0 1.517 1.225 2.758 2.74 2.758a2.764 2.764 0 0 0 2.752-2.759 2.764 2.764 0 0 0-2.753-2.759z" fill="#333"/><path d="M37.346 9.49c0 4.68-3.785 8.472-8.452 8.472-4.666 0-8.451-3.791-8.451-8.471s3.785-8.472 8.451-8.472c4.667 0 8.452 3.792 8.452 8.472z" fill="#40B756" stroke="#3DB657" stroke-width=".991"/><path d="M31.864 5.34v.808L28.5 13.662h-1.26l3.293-7.288h-3.805V7.86h-1.141V5.34h6.277z" fill="#fff"/></svg>
